X:161
M:6/8
L:1/8
Q:3/8=110
K:D
|:a2 a afd|Bcd efg|g2 g gec|ABc def|A2 A AGF|BGE EFG|AFD DEC|D2 D D3:|

